humanity-icon-theme/Humanity/actions/32/document-new.svg

<?xml version="1.0" encoding="UTF-8" standalone="no"?>
<!-- Created with Inkscape (http://www.inkscape.org/) -->

<svg
   xmlns:dc="http://purl.org/dc/elements/1.1/"
   xmlns:cc="http://creativecommons.org/ns#"
   xmlns:rdf="http://www.w3.org/1999/02/22-rdf-syntax-ns#"
   xmlns:svg="http://www.w3.org/2000/svg"
   xmlns="http://www.w3.org/2000/svg"
   xmlns:xlink="http://www.w3.org/1999/xlink"
   xmlns:sodipodi="http://sodipodi.sourceforge.net/DTD/sodipodi-0.dtd"
   xmlns:inkscape="http://www.inkscape.org/namespaces/inkscape"
   version="1.0"
   width="32"
   height="32"
   id="svg2424"
   inkscape:version="0.47 r22583"
   sodipodi:docname="document-new.svg">
  <metadata
     id="metadata52">
    <rdf:RDF>
      <cc:Work
         rdf:about="">
        <dc:format>image/svg+xml</dc:format>
        <dc:type
           rdf:resource="http://purl.org/dc/dcmitype/StillImage" />
        <dc:title></dc:title>
      </cc:Work>
    </rdf:RDF>
  </metadata>
  <sodipodi:namedview
     pagecolor="#ffffff"
     bordercolor="#666666"
     borderopacity="1"
     objecttolerance="10"
     gridtolerance="10"
     guidetolerance="10"
     inkscape:pageopacity="0"
     inkscape:pageshadow="2"
     inkscape:window-width="640"
     inkscape:window-height="488"
     id="namedview50"
     showgrid="false"
     inkscape:zoom="7.375"
     inkscape:cx="16"
     inkscape:cy="15.728814"
     inkscape:window-x="0"
     inkscape:window-y="24"
     inkscape:window-maximized="0"
     inkscape:current-layer="svg2424" />
  <defs
     id="defs2426">
    <linearGradient
       id="linearGradient5048">
      <stop
         id="stop5050"
         style="stop-color:#000000;stop-opacity:0"
         offset="0" />
      <stop
         id="stop5056"
         style="stop-color:#000000;stop-opacity:1"
         offset="0.5" />
      <stop
         id="stop5052"
         style="stop-color:#000000;stop-opacity:0"
         offset="1" />
    </linearGradient>
    <linearGradient
       id="linearGradient5060">
      <stop
         id="stop5062"
         style="stop-color:#000000;stop-opacity:1"
         offset="0" />
      <stop
         id="stop5064"
         style="stop-color:#000000;stop-opacity:0"
         offset="1" />
    </linearGradient>
    <linearGradient
       id="linearGradient3104">
      <stop
         id="stop3106"
         style="stop-color:#aaaaaa;stop-opacity:1"
         offset="0" />
      <stop
         id="stop3108"
         style="stop-color:#c8c8c8;stop-opacity:1"
         offset="1" />
    </linearGradient>
    <linearGradient
       id="linearGradient3600">
      <stop
         id="stop3602"
         style="stop-color:#f4f4f4;stop-opacity:1"
         offset="0" />
      <stop
         id="stop3604"
         style="stop-color:#dbdbdb;stop-opacity:1"
         offset="1" />
    </linearGradient>
    <radialGradient
       cx="102"
       cy="112.3047"
       r="139.55859"
       id="XMLID_8_"
       gradientUnits="userSpaceOnUse">
      <stop
         id="stop41"
         style="stop-color:#b7b8b9;stop-opacity:1"
         offset="0" />
      <stop
         id="stop47"
         style="stop-color:#ececec;stop-opacity:1"
         offset="0.18851049" />
      <stop
         id="stop49"
         style="stop-color:#fafafa;stop-opacity:0"
         offset="0.25718147" />
      <stop
         id="stop51"
         style="stop-color:#ffffff;stop-opacity:0"
         offset="0.30111277" />
      <stop
         id="stop53"
         style="stop-color:#fafafa;stop-opacity:0"
         offset="0.53130001" />
      <stop
         id="stop55"
         style="stop-color:#ebecec;stop-opacity:0"
         offset="0.84490001" />
      <stop
         id="stop57"
         style="stop-color:#e1e2e3;stop-opacity:0"
         offset="1" />
    </radialGradient>
    <linearGradient
       id="linearGradient3211">
      <stop
         id="stop3213"
         style="stop-color:#ffffff;stop-opacity:1"
         offset="0" />
      <stop
         id="stop3215"
         style="stop-color:#ffffff;stop-opacity:0"
         offset="1" />
    </linearGradient>
    <filter
       height="1.3286875"
       y="-0.16434373"
       width="1.2969251"
       x="-0.14846256"
       id="filter3212">
      <feGaussianBlur
         id="feGaussianBlur3214"
         stdDeviation="0.77391625"
         inkscape:collect="always" />
    </filter>
    <linearGradient
       id="linearGradient8589">
      <stop
         id="stop8591"
         style="stop-color:#fefefe;stop-opacity:1"
         offset="0" />
      <stop
         id="stop8593"
         style="stop-color:#cbcbcb;stop-opacity:1"
         offset="1" />
    </linearGradient>
    <linearGradient
       x1="32.892288"
       y1="8.0590115"
       x2="36.358372"
       y2="5.4565363"
       id="linearGradient2506"
       xlink:href="#linearGradient8589"
       gradientUnits="userSpaceOnUse"
       gradientTransform="matrix(0.6371285,0,0,0.6445638,0.8296804,0.7445175)" />
    <linearGradient
       x1="24"
       y1="1.9999999"
       x2="24"
       y2="46.01725"
       id="linearGradient2510"
       xlink:href="#linearGradient3211"
       gradientUnits="userSpaceOnUse"
       gradientTransform="matrix(0.6363646,0,0,0.6279076,0.7272514,0.9302159)" />
    <radialGradient
       cx="102"
       cy="112.3047"
       r="139.55859"
       id="radialGradient2513"
       xlink:href="#XMLID_8_"
       gradientUnits="userSpaceOnUse"
       gradientTransform="matrix(0.2340426,0,0,-0.2542968,1.0212767,32.288672)" />
    <linearGradient
       x1="25.132275"
       y1="0.98520643"
       x2="25.132275"
       y2="47.013336"
       id="linearGradient2516"
       xlink:href="#linearGradient3600"
       gradientUnits="userSpaceOnUse"
       gradientTransform="matrix(0.6571436,0,0,0.6301241,0.2285531,-8.9647831e-2)" />
    <linearGradient
       x1="-51.786404"
       y1="50.786446"
       x2="-51.786404"
       y2="2.9062471"
       id="linearGradient2518"
       xlink:href="#linearGradient3104"
       gradientUnits="userSpaceOnUse"
       gradientTransform="matrix(0.5306412,0,0,0.5897023,39.269605,-0.7919081)" />
    <radialGradient
       cx="605.71429"
       cy="486.64789"
       r="117.14286"
       fx="605.71429"
       fy="486.64789"
       id="radialGradient2521"
       xlink:href="#linearGradient5060"
       gradientUnits="userSpaceOnUse"
       gradientTransform="matrix(1.566318e-2,0,0,8.2352934e-3,17.610433,26.980566)" />
    <radialGradient
       cx="605.71429"
       cy="486.64789"
       r="117.14286"
       fx="605.71429"
       fy="486.64789"
       id="radialGradient2524"
       xlink:href="#linearGradient5060"
       gradientUnits="userSpaceOnUse"
       gradientTransform="matrix(-1.5663176e-2,0,0,8.2352934e-3,14.389566,26.980566)" />
    <linearGradient
       x1="302.85715"
       y1="366.64789"
       x2="302.85715"
       y2="609.50507"
       id="linearGradient2527"
       xlink:href="#linearGradient5048"
       gradientUnits="userSpaceOnUse"
       gradientTransform="matrix(4.5769278e-2,0,0,8.2352934e-3,-0.5423243,26.980549)" />
    <linearGradient
       inkscape:collect="always"
       xlink:href="#linearGradient3943"
       id="linearGradient3059"
       gradientUnits="userSpaceOnUse"
       gradientTransform="matrix(0.37573149,0,0,0.37346493,16.248216,16.686334)"
       x1="24.138529"
       y1="7.0478544"
       x2="24.138529"
       y2="39.268391" />
    <linearGradient
       id="linearGradient3943">
      <stop
         id="stop3945"
         style="stop-color:#ffffff;stop-opacity:1"
         offset="0" />
      <stop
         id="stop3947"
         style="stop-color:#ffffff;stop-opacity:0"
         offset="1" />
    </linearGradient>
    <linearGradient
       id="linearGradient3242-7">
      <stop
         id="stop3244-5"
         style="stop-color:#eef87e;stop-opacity:1"
         offset="0" />
      <stop
         id="stop3246-9"
         style="stop-color:#cde34f;stop-opacity:1"
         offset="0.26238" />
      <stop
         id="stop3248-7"
         style="stop-color:#93b723;stop-opacity:1"
         offset="0.66093999" />
      <stop
         id="stop3250-8"
         style="stop-color:#5a7e0d;stop-opacity:1"
         offset="1" />
    </linearGradient>
    <linearGradient
       id="linearGradient2490-3">
      <stop
         id="stop2492-3"
         style="stop-color:#365f0e;stop-opacity:1"
         offset="0" />
      <stop
         id="stop2494-8"
         style="stop-color:#84a718;stop-opacity:1"
         offset="1" />
    </linearGradient>
    <radialGradient
       r="31.000002"
       fy="51.694645"
       fx="69.447609"
       cy="51.694645"
       cx="69.447609"
       gradientTransform="matrix(0,0.46490462,-0.50575881,0,49.573765,-12.295749)"
       gradientUnits="userSpaceOnUse"
       id="radialGradient3137"
       xlink:href="#linearGradient3242-7"
       inkscape:collect="always" />
    <linearGradient
       y2="51.244411"
       x2="72.421684"
       y1="124.75623"
       x1="72.421684"
       gradientTransform="matrix(0.19311403,0,0,0.19469352,8.0059637,7.860099)"
       gradientUnits="userSpaceOnUse"
       id="linearGradient3139"
       xlink:href="#linearGradient2490-3"
       inkscape:collect="always" />
  </defs>
  <g
     id="layer1">
    <rect
       width="22.100021"
       height="2"
       x="4.9499893"
       y="30"
       id="rect2879"
       style="opacity:0.15;fill:url(#linearGradient2527);fill-opacity:1;fill-rule:nonzero;stroke:none;stroke-width:1;stroke-linecap:round;stroke-linejoin:miter;marker:none;marker-start:none;marker-mid:none;marker-end:none;stroke-miterlimit:4;stroke-dasharray:none;stroke-dashoffset:0;stroke-opacity:1;visibility:visible;display:inline;overflow:visible" />
    <path
       d="M 4.9499887,30.000087 C 4.9499887,30.000087 4.9499887,31.999977 4.9499887,31.999977 C 4.1433737,32.003743 2.9999867,31.551903 2.9999867,30.999903 C 2.9999867,30.447903 3.9001077,30.000087 4.9499887,30.000087 z"
       id="path2881"
       style="opacity:0.15;fill:url(#radialGradient2524);fill-opacity:1;fill-rule:nonzero;stroke:none;stroke-width:1;stroke-linecap:round;stroke-linejoin:miter;marker:none;marker-start:none;marker-mid:none;marker-end:none;stroke-miterlimit:4;stroke-dasharray:none;stroke-dashoffset:0;stroke-opacity:1;visibility:visible;display:inline;overflow:visible" />
    <path
       d="M 27.050011,30.000087 C 27.050011,30.000087 27.050011,31.999977 27.050011,31.999977 C 27.856625,32.003743 29.000013,31.551903 29.000013,30.999903 C 29.000013,30.447903 28.099891,30.000087 27.050011,30.000087 z"
       id="path2883"
       style="opacity:0.15;fill:url(#radialGradient2521);fill-opacity:1;fill-rule:nonzero;stroke:none;stroke-width:1;stroke-linecap:round;stroke-linejoin:miter;marker:none;marker-start:none;marker-mid:none;marker-end:none;stroke-miterlimit:4;stroke-dasharray:none;stroke-dashoffset:0;stroke-opacity:1;visibility:visible;display:inline;overflow:visible" />
    <path
       d="M 4.499961,1.4999609 C 9.7704453,1.4999609 15.04093,1.4999609 20.311419,1.4999609 C 21.235975,1.8127611 26.20301,5.3763851 27.50004,7.8438467 C 27.50004,15.395911 27.50004,22.947975 27.50004,30.50004 C 19.833346,30.50004 12.166654,30.50004 4.499961,30.50004 C 4.499961,20.833346 4.499961,11.166652 4.499961,1.4999609 z"
       id="path4160"
       style="fill:url(#linearGradient2516);fill-opacity:1;stroke:url(#linearGradient2518);stroke-width:0.99992174;stroke-linecap:butt;stroke-linejoin:round;stroke-miterlimit:4;stroke-dasharray:none;stroke-dashoffset:0;stroke-opacity:1;display:inline" />
    <path
       d="M 5.2340427,30 C 5.1050853,30 5,29.885821 5,29.745703 L 5,2.2816602 C 5,2.141289 5.1050853,2.0273644 5.2340427,2.0273644 C 10.076044,2.0976535 15.441839,1.9222203 20.277954,2.0448649 L 26.931426,7.8143805 L 27,29.745703 C 27,29.885821 26.895148,30 26.765957,30 L 5.2340427,30 z"
       id="path4191"
       style="fill:url(#radialGradient2513);fill-opacity:1" />
    <path
       d="M 26.50004,8.1389757 C 26.50004,15.170208 26.50004,22.468805 26.50004,29.50004 C 19.500015,29.50004 12.499989,29.50004 5.4999611,29.50004 C 5.4999611,20.500011 5.4999611,11.499986 5.4999611,2.4999608 C 10.312145,2.4999608 15.239097,2.4999608 20.051281,2.4999608"
       id="path2435"
       style="opacity:0.6;fill:none;fill-opacity:1;stroke:url(#linearGradient2510);stroke-width:1;stroke-linecap:butt;stroke-linejoin:miter;stroke-miterlimit:4;stroke-dasharray:none;stroke-dashoffset:0;stroke-opacity:1;display:inline" />
    <path
       d="M 28.617256,0.92125832 C 32.899778,0.92125832 30.770506,9.4044296 30.770506,9.4044296 C 30.770506,9.4044296 41.128148,7.6020829 41.128148,12.223174 C 41.128148,9.6134507 29.825844,1.4945784 28.617256,0.92125832 z"
       transform="matrix(0.6385981,0,0,0.6193639,0.7250758,1.4294058)"
       id="path12038"
       style="opacity:0.4;fill:#000000;fill-opacity:1;fill-rule:evenodd;stroke:none;stroke-width:1px;stroke-linecap:butt;stroke-linejoin:miter;stroke-opacity:1;display:inline;filter:url(#filter3212)" />
    <path
       d="M 19.000002,2.0000004 C 21.03489,2.0000004 20.491614,6.7454911 20.491614,6.7454911 C 20.491614,6.7454911 26.989432,6.1378635 26.989432,9 C 26.989432,8.3026345 27.044298,7.803237 26.904003,7.5856242 C 25.896098,6.0222381 21.542643,2.5140243 19.970553,2.0542158 C 19.85291,2.0198078 19.592053,2.0000004 19.000002,2.0000004 z"
       id="path4474"
       style="fill:url(#linearGradient2506);fill-opacity:1;fill-rule:evenodd;stroke:none;stroke-width:1px;stroke-linecap:butt;stroke-linejoin:miter;stroke-opacity:1;display:inline" />
  </g>
  <path
     style="color:#000000;fill:url(#radialGradient3137);fill-opacity:1;fill-rule:nonzero;stroke:url(#linearGradient3139);stroke-width:0.98542744;stroke-linecap:round;stroke-linejoin:round;stroke-miterlimit:4;stroke-opacity:1;stroke-dasharray:none;stroke-dashoffset:0;marker:none;visibility:visible;display:inline;overflow:visible;enable-background:accumulate"
     id="path2262"
     d="m 22.5,22.5 0,-4.021022 5,0 0,4.021022 4.007287,0 0,5 -4.007287,0 0,4.007286 -5,0 0,-4.007286 -4.007286,0 0,-5 4.007286,0 z" />
  <path
     style="opacity:0.4;fill:none;stroke:url(#linearGradient3059);stroke-width:1;stroke-linecap:butt;stroke-linejoin:miter;stroke-miterlimit:4;stroke-opacity:1;stroke-dasharray:none;display:inline"
     id="path2272"
     d="m 23.5,23.5 0,-4 3,0 0,4 4.02,0 0,3 -4.02,0 0,4 -3,0 0,-4 -4,0 0,-3 4,0 z" />
</svg>

<?xml version="1.0" encoding="UTF-8" standalone="no"?>
<!-- Created with Inkscape (http://www.inkscape.org/) -->
<svg id="svg2424" xmlns:rdf="http://www.w3.org/1999/02/22-rdf-syntax-ns#" xmlns="http://www.w3.org/2000/svg" height="32" width="32" version="1.0" xmlns:cc="http://creativecommons.org/ns#" xmlns:xlink="http://www.w3.org/1999/xlink" xmlns:dc="http://purl.org/dc/elements/1.1/">
 <metadata id="metadata52">
  <rdf:RDF>
   <cc:Work rdf:about="">
    <dc:format>image/svg+xml</dc:format>
    <dc:type rdf:resource="http://purl.org/dc/dcmitype/StillImage"/>
    <dc:title/>
   </cc:Work>
  </rdf:RDF>
 </metadata>
 <defs id="defs2426">
  <linearGradient id="linearGradient5060">
   <stop id="stop5062" offset="0"/>
   <stop id="stop5064" style="stop-opacity:0" offset="1"/>
  </linearGradient>
  <filter id="filter3212" y="-.16434" width="1.2969" x="-.14846" height="1.3287">
   <feGaussianBlur id="feGaussianBlur3214" stdDeviation="0.77391625"/>
  </filter>
  <linearGradient id="linearGradient2506" y2="5.4565" gradientUnits="userSpaceOnUse" x2="36.358" gradientTransform="matrix(.63713 0 0 .64456 .82968 .74452)" y1="8.059" x1="32.892">
   <stop id="stop8591" style="stop-color:#fefefe" offset="0"/>
   <stop id="stop8593" style="stop-color:#cbcbcb" offset="1"/>
  </linearGradient>
  <linearGradient id="linearGradient2510" y2="46.017" gradientUnits="userSpaceOnUse" x2="24" gradientTransform="matrix(.63636 0 0 .62791 .72725 .93022)" y1="2" x1="24">
   <stop id="stop3213" style="stop-color:#fff" offset="0"/>
   <stop id="stop3215" style="stop-color:#fff;stop-opacity:0" offset="1"/>
  </linearGradient>
  <radialGradient id="radialGradient2513" gradientUnits="userSpaceOnUse" cy="112.3" cx="102" gradientTransform="matrix(.23404 0 0 -.25430 1.0213 32.289)" r="139.56">
   <stop id="stop41" style="stop-color:#b7b8b9" offset="0"/>
   <stop id="stop47" style="stop-color:#ececec" offset=".18851"/>
   <stop id="stop49" style="stop-color:#fafafa;stop-opacity:0" offset=".25718"/>
   <stop id="stop51" style="stop-color:#fff;stop-opacity:0" offset=".30111"/>
   <stop id="stop53" style="stop-color:#fafafa;stop-opacity:0" offset=".53130"/>
   <stop id="stop55" style="stop-color:#ebecec;stop-opacity:0" offset=".84490"/>
   <stop id="stop57" style="stop-color:#e1e2e3;stop-opacity:0" offset="1"/>
  </radialGradient>
  <linearGradient id="linearGradient2516" y2="47.013" gradientUnits="userSpaceOnUse" x2="25.132" gradientTransform="matrix(.65714 0 0 .63012 .22855 -.089648)" y1=".98521" x1="25.132">
   <stop id="stop3602" style="stop-color:#f4f4f4" offset="0"/>
   <stop id="stop3604" style="stop-color:#dbdbdb" offset="1"/>
  </linearGradient>
  <linearGradient id="linearGradient2518" y2="2.9062" gradientUnits="userSpaceOnUse" x2="-51.786" gradientTransform="matrix(.53064 0 0 .58970 39.27 -.79191)" y1="50.786" x1="-51.786">
   <stop id="stop3106" style="stop-color:#aaa" offset="0"/>
   <stop id="stop3108" style="stop-color:#c8c8c8" offset="1"/>
  </linearGradient>
  <radialGradient id="radialGradient2521" xlink:href="#linearGradient5060" gradientUnits="userSpaceOnUse" cy="486.65" cx="605.71" gradientTransform="matrix(.015663 0 0 .0082353 17.61 26.981)" r="117.14"/>
  <radialGradient id="radialGradient2524" xlink:href="#linearGradient5060" gradientUnits="userSpaceOnUse" cy="486.65" cx="605.71" gradientTransform="matrix(-.015663 0 0 .0082353 14.39 26.981)" r="117.14"/>
  <linearGradient id="linearGradient2527" y2="609.51" gradientUnits="userSpaceOnUse" x2="302.86" gradientTransform="matrix(.045769 0 0 .0082353 -.54232 26.981)" y1="366.65" x1="302.86">
   <stop id="stop5050" style="stop-opacity:0" offset="0"/>
   <stop id="stop5056" offset=".5"/>
   <stop id="stop5052" style="stop-opacity:0" offset="1"/>
  </linearGradient>
  <linearGradient id="linearGradient3059" y2="39.268" gradientUnits="userSpaceOnUse" x2="24.139" gradientTransform="matrix(.37573 0 0 .37346 16.248 16.686)" y1="7.0479" x1="24.139">
   <stop id="stop3945" style="stop-color:#fff" offset="0"/>
   <stop id="stop3947" style="stop-color:#fff;stop-opacity:0" offset="1"/>
  </linearGradient>
  <radialGradient id="radialGradient3137" gradientUnits="userSpaceOnUse" cx="69.448" cy="51.695" r="31" gradientTransform="matrix(0 .46490 -.50576 0 49.574 -12.296)">
   <stop id="stop3244-5" style="stop-color:#eef87e" offset="0"/>
   <stop id="stop3246-9" style="stop-color:#cde34f" offset=".26238"/>
   <stop id="stop3248-7" style="stop-color:#93b723" offset=".66094"/>
   <stop id="stop3250-8" style="stop-color:#5a7e0d" offset="1"/>
  </radialGradient>
  <linearGradient id="linearGradient3139" y2="51.244" gradientUnits="userSpaceOnUse" y1="124.76" gradientTransform="matrix(.19311 0 0 .19469 8.006 7.8601)" x2="72.422" x1="72.422">
   <stop id="stop2492-3" style="stop-color:#365f0e" offset="0"/>
   <stop id="stop2494-8" style="stop-color:#84a718" offset="1"/>
  </linearGradient>
 </defs>
 <g id="layer1">
  <rect id="rect2879" style="opacity:.15;fill:url(#linearGradient2527)" height="2" width="22.1" y="30" x="4.95"/>
  <path id="path2881" style="opacity:.15;fill:url(#radialGradient2524)" d="m4.95 30v2c-0.8066 0.004-1.95-0.448-1.95-1s0.9001-1 1.95-1z"/>
  <path id="path2883" style="opacity:.15;fill:url(#radialGradient2521)" d="m27.05 30v2c0.807 0.004 1.95-0.448 1.95-1s-0.9-1-1.95-1z"/>
  <path id="path4160" style="stroke-linejoin:round;stroke:url(#linearGradient2518);stroke-width:.99992;fill:url(#linearGradient2516)" d="m4.5 1.5h15.811c0.925 0.3128 5.892 3.8764 7.189 6.3438v22.656h-23v-29z"/>
  <path id="path4191" style="fill:url(#radialGradient2513)" d="m5.234 30c-0.1289 0-0.234-0.114-0.234-0.254v-27.464c0-0.1407 0.1051-0.2546 0.234-0.2546 4.842 0.0703 10.208-0.1052 15.044 0.0175l6.653 5.7695 0.069 21.932c0 0.14-0.105 0.254-0.234 0.254h-21.532z"/>
  <path id="path2435" style="opacity:.6;stroke:url(#linearGradient2510);fill:none" d="m26.5 8.139v21.361h-21v-27h14.551"/>
  <path id="path12038" style="opacity:.4;fill-rule:evenodd;filter:url(#filter3212)" d="m28.617 0.92126c4.283 0 2.154 8.4831 2.154 8.4831s10.357-1.8023 10.357 2.8186c0-2.6095-11.302-10.728-12.511-11.302z" transform="matrix(.63860 0 0 .61936 .72508 1.4294)"/>
  <path id="path4474" style="fill:url(#linearGradient2506);fill-rule:evenodd" d="m19 2c2.035 0 1.492 4.7455 1.492 4.7455s6.497-0.6076 6.497 2.2545c0-0.6974 0.055-1.1968-0.085-1.4144-1.008-1.5634-5.361-5.0716-6.933-5.5314-0.118-0.0344-0.379-0.0542-0.971-0.0542z"/>
 </g>
 <path id="path2262" style="stroke-linejoin:round;stroke-width:.98543;color:#000000;stroke:url(#linearGradient3139);stroke-linecap:round;fill:url(#radialGradient3137)" d="m22.5 22.5v-4.021h5v4.021h4.0073v5h-4.0073v4.0073h-5v-4.0073h-4.0073v-5h4.0073z"/>
 <path id="path2272" style="opacity:.4;stroke:url(#linearGradient3059);fill:none" d="m23.5 23.5v-4h3v4h4.02v3h-4.02v4h-3v-4h-4v-3h4z"/>
</svg>
